X: 24581
T: Lutunn Noz
R: slide
M: 12/8
K: Ddorian
|:A2 GF E2 G2 FD FG|A2 GF E2 G2 F2 D2|
E2 DC B,2 D2 CA, CD|E2 DC B,2 D2 C2 A,2:|
d2 fe d2 c2 d2 c2|A2 cB A2 G2 F2 D2|
|:D2 EF G2 A2 E4|EF ED C2 D2 EF ED|
D2 EF G2 A2 E4|1 EF ED C2 D2 D4:|2 A2 GF E2 F2 D4||
|:d2 dc B2 A2 A2 D2|D2 EF G2 A2 B4|
B2 cB A2 G2 B4|B2 cB A2 G2 A2 D2:|
|:A2 GF E2 G2 FE D2|E2 CD E2 F2 F4|
A2 GF E2 G2 FE D2|E2 CD E2 F2 D4:|
|:d2 cB c2 A2 B4|G2 AB c2 B2 A4|
D2 EF G2 A2 E4|C2 DE F2 E2 D4:|

